X:171
T:Leeds Polka, The
R:polka 48
C:from the playing of Bob Keeble
Q:1/8=200
I:abc2nwc
M:2/4
L:1/16
K:D
d2g2 gfge|d2g2 B4|A2f2 f4|B2g2 g4|
d2g2 gfge|d2g2 B4|A2f2 a2f2|g4g4:|
|:Adf2 f2a2|a2g2 gfe2|Ace2 e2g2|g2f2 f2ed|
Adf2 f2a2|a2g2 gfe2|Ace2 Ace2|d4d4:|
|:DGB2 B4|DGB2 B4|=cBA2 cBA2|G2B2 e2d2|
DGB2 B4|DGB2 B4|=cBA2 cBA2|G4G4:|

